rospo-icon-theme-classic-common/64x64/apps/com.github.philip-scott.wallpaperize.svg

<svg height="64" width="64" xmlns="http://www.w3.org/2000/svg"><path d="m60 55.222222v-44.444444c0-1.538889-1.2488-2.777778-2.8-2.777778h-50.4c-1.5512 0-2.8 1.238889-2.8 2.777778v44.444444c0 1.53889 1.2488 2.777778 2.8 2.777778h50.4c1.5512 0 2.8-1.238888 2.8-2.777778z" opacity=".2"/><path d="m60 54.222222v-44.4444442c0-1.538889-1.2488-2.7777778-2.8-2.7777778h-50.4c-1.5512 0-2.8 1.2388888-2.8 2.7777778v44.4444442c0 1.53889 1.2488 2.777778 2.8 2.777778h50.4c1.5512 0 2.8-1.238888 2.8-2.777778z" fill="#704774"/><rect height="28" opacity=".2" rx="1.214" ry="1.273" width="34" x="15" y="19"/><rect fill="#ce6ef0" height="28" rx="1.214" ry="1.273" width="34" x="15" y="18"/><path d="m18.132812 37c-1.067628 0-2.112572.098751-3.132812.28125v7.445312c0 .703015.539025 1.270108 1.208984 1.273438.001979.00001.003879 0 .00586 0h17.785156c-3.434666-5.515948-9.263346-9-15.867188-9z" fill="#ffb94b" fill-rule="evenodd"/><path d="m33.101229 18c-.0045.06052.0026.213618.02767.267968.08738.18984.350686.217267.686196.06836.299317-.13286.586519-.149903.639162-.03555.05264.114365-.05006.273012-.229655.352734-.428217.190082-.380135.264652.644694.976171.793388.550836.946362.568461 1.787433.196877.727051-.321205.923573-.32902.937989-.03827.01062.21275.143692.317101.318195.248828.165814-.06487.120509.06296-.09962.284375-.259154.260693-.303097.496985-.124504.667186.233489.222542.0215-.05501-1.400064.575994-1.822942.809181-3.359968 2.306558-4.448343 3.590468-.677259.798933-1.949362 3.490013-1.801271 3.811718.04144.09005.421906.0097.843912-.177736.631033-.280105.765293-.460705.755373-1.022655l-.01105-.683594.318195.459373.320967.462112.262856-.844924c.245044-.787468.267639-.807615.373536-.314451.07032.32746.251768.517755.473144.503123.267002-.01766.344949.101597.315428.470312-.03593.448692.04443.45536.885417.08202.744761-.330594.701776-.761695.884545-1.397499l.224119-.790234.304364.617969c.287401.587593.307005.590393.434405.0711.116726-.475648.154912-.500762.296061-.194147.117534.255293.349509.698934.843913.479472.635883-.282255.603553-.186954-.462076 1.421876-.627666.94762-1.261366 3.121521-1.718914 4.342798-.796314 2.125469-1.643368 5.710521-1.314288 5.564453.454433-.201729 2.365089-1.896949 2.299314-2.039843-.04229-.09184-.089-.478043-.105145-.858594-.02907-.684906-.02599-.689369.373535-.308984.564172.537139 1.021338.249307 1.001626-.631644-.01764-.784264.269901-1.123826.509114-.604296.116216.252474.218139.120619.57552-.272264.32485-.357121.463315-.936868.246776-1.407255-.266798-.579574-.255193-.612882.177076-.380074.489402.263566.57331-.06347.357066-.533204-.0819-.17793.08183-.320648.475912-.415628.329904-.0795.195007-.07058.186938.01917-.133683 1.485107-.158121 5.061801-.0415 6.392969.140441 1.603926 1.336363 4.507141 1.603265 4.38867.06462-.02867.408648-.998555.763672-2.154686.4109-1.338072.551441-2.216256.381834-2.419921-.196371-.23581-.137955-.38096.229655-.544142.579307-.257143.865884-1.414827.448243-1.81289-.203575-.194018-.167662-.275589.13005-.295312.515493-.03412.452514-.174849-.376303-.809374-.654117-.500763-.656903-.505312-.06917-.333594.327456.09565.66117.14504.741536.109351.230723-.102416-.193524-.869693-.500814-.905079-.152277-.01766-.325851-.129941-.381837-.251561-.06458-.14028.05999-.178252.340336-.106636.781819.199812 1.080388-.368132.55615-1.058204-.254358-.334824-.598129-.674874-.763673-.754687-.210418-.101446-.120551-.187363.293294-.28711.360491-.08689.544425-.236707.475911-.385544-.06188-.134444.01062-.232948.157717-.216016.147071.01702.338243-.39964.426107-.924222.08785-.524576.219566-.981202.29053-1.014451 1.998304 2.043686 2.786092 11.101509 3.128247 16.798828h1.000003v-13.134765c-1.012579-2.13702-2.082558-3.974602-3.04915-4.954686-1.209577-1.226461-1.265856-1.406063-.345865-1.129298.515183.15499.549503.125224.520178-.421095-.03005-.560202-.01084-.553876.456546.07931.381533.516861.815372.715995 2.008789.921482.154445.02658.265514.04013.409502.06287v-5.055859c-.02524.000108-.0493-.003-.07469-.0028l-1.062499.0082.794108-.358201c.123356-.05562.238223-.121466.343076-.18866v-.555079c0-.171393-.03321-.33228-.09129-.48125-.0032-.0094-.0076-.01803-.01105-.02734-.187255-.448939-.613411-.762829-1.112354-.762829h-1.795737l-2.291016 1.126562-.132813-.713671c-.016545-.08914-.04839-.305255-.074704-.412891h-3.549966c.0011.0031.000827.0079 0 .0083-.0034.0014-.01636-.005-.02767-.0083zm5.990392 6.543361c.237858.03106.274775.618212.0055.954296-.177076.221178-.383213.429556-.456543.46211-.190527.08456.144479-1.299336.337567-1.394534.04193-.02068.07945-.02632.113454-.02188z" opacity=".6"/><path d="m6.8007812 7c-1.5512 0-2.8007812 1.2384547-2.8007812 2.7773438v1.0000002c0-1.5388894 1.2495812-2.777344 2.8007812-2.777344h50.3984378c1.5512 0 2.800781 1.2384546 2.800781 2.777344v-1.0000002c0-1.5388891-1.249581-2.7773438-2.800781-2.7773438z" fill="#fff" opacity=".1"/><path d="m16.214844 18c-.672714 0-1.214844.568347-1.214844 1.273438v1c0-.705091.54213-1.273438 1.214844-1.273438h31.570312c.672714 0 1.214844.568347 1.214844 1.273438v-1c0-.705091-.54213-1.273438-1.214844-1.273438z" fill="#fff" opacity=".1"/></svg>

<svg xmlns="http://www.w3.org/2000/svg" width="64" height="64" version="1">
 <path style="opacity:0.2" d="M 60,55.222222 60,10.777778 C 60,9.238889 58.7512,8 57.2,8 L 6.8,8 C 5.2488,8 4,9.238889 4,10.777778 L 4,55.222222 C 4,56.761112 5.2488,58 6.8,58 l 50.4,0 c 1.5512,0 2.8,-1.238888 2.8,-2.777778 z"/>
 <path style="fill:#704774" d="M 60,54.222222 60,9.7777778 C 60,8.2388888 58.7512,7 57.2,7 L 6.8,7 C 5.2488,7 4,8.2388888 4,9.7777778 L 4,54.222222 C 4,55.761112 5.2488,57 6.8,57 l 50.4,0 c 1.5512,0 2.8,-1.238888 2.8,-2.777778 z"/>
 <rect style="opacity:0.2" width="34" height="28" x="15" y="19" rx="1.214" ry="1.273"/>
 <rect style="fill:#ce6ef0" width="34" height="28" x="15" y="18" rx="1.214" ry="1.273"/>
 <path style="fill:#ffb94b;fill-rule:evenodd" d="M 18.132812 37 C 17.065184 37 16.02024 37.098751 15 37.28125 L 15 44.726562 C 15 45.429577 15.539025 45.99667 16.208984 46 C 16.210963 46.00001 16.212863 46 16.214844 46 L 34 46 C 30.565334 40.484052 24.736654 37 18.132812 37 z"/>
 <path style="opacity:0.6" d="m 33.101229,18 c -0.0045,0.06052 0.0026,0.213618 0.02767,0.267968 0.08738,0.18984 0.350686,0.217267 0.686196,0.06836 0.299317,-0.13286 0.586519,-0.149903 0.639162,-0.03555 0.05264,0.114365 -0.05006,0.273012 -0.229655,0.352734 -0.428217,0.190082 -0.380135,0.264652 0.644694,0.976171 0.793388,0.550836 0.946362,0.568461 1.787433,0.196877 0.727051,-0.321205 0.923573,-0.32902 0.937989,-0.03827 0.01062,0.21275 0.143692,0.317101 0.318195,0.248828 0.165814,-0.06487 0.120509,0.06296 -0.09962,0.284375 -0.259154,0.260693 -0.303097,0.496985 -0.124504,0.667186 0.233489,0.222542 0.0215,-0.05501 -1.400064,0.575994 -1.822942,0.809181 -3.359968,2.306558 -4.448343,3.590468 -0.677259,0.798933 -1.949362,3.490013 -1.801271,3.811718 0.04144,0.09005 0.421906,0.0097 0.843912,-0.177736 0.631033,-0.280105 0.765293,-0.460705 0.755373,-1.022655 l -0.01105,-0.683594 0.318195,0.459373 0.320967,0.462112 0.262856,-0.844924 c 0.245044,-0.787468 0.267639,-0.807615 0.373536,-0.314451 0.07032,0.32746 0.251768,0.517755 0.473144,0.503123 0.267002,-0.01766 0.344949,0.101597 0.315428,0.470312 -0.03593,0.448692 0.04443,0.45536 0.885417,0.08202 0.744761,-0.330594 0.701776,-0.761695 0.884545,-1.397499 l 0.224119,-0.790234 0.304364,0.617969 c 0.287401,0.587593 0.307005,0.590393 0.434405,0.0711 0.116726,-0.475648 0.154912,-0.500762 0.296061,-0.194147 0.117534,0.255293 0.349509,0.698934 0.843913,0.479472 0.635883,-0.282255 0.603553,-0.186954 -0.462076,1.421876 -0.627666,0.94762 -1.261366,3.121521 -1.718914,4.342798 -0.796314,2.125469 -1.643368,5.710521 -1.314288,5.564453 0.454433,-0.201729 2.365089,-1.896949 2.299314,-2.039843 -0.04229,-0.09184 -0.089,-0.478043 -0.105145,-0.858594 -0.02907,-0.684906 -0.02599,-0.689369 0.373535,-0.308984 0.564172,0.537139 1.021338,0.249307 1.001626,-0.631644 -0.01764,-0.784264 0.269901,-1.123826 0.509114,-0.604296 0.116216,0.252474 0.218139,0.120619 0.57552,-0.272264 0.32485,-0.357121 0.463315,-0.936868 0.246776,-1.407255 -0.266798,-0.579574 -0.255193,-0.612882 0.177076,-0.380074 0.489402,0.263566 0.57331,-0.06347 0.357066,-0.533204 -0.0819,-0.17793 0.08183,-0.320648 0.475912,-0.415628 0.329904,-0.0795 0.195007,-0.07058 0.186938,0.01917 -0.133683,1.485107 -0.158121,5.061801 -0.0415,6.392969 0.140441,1.603926 1.336363,4.507141 1.603265,4.38867 0.06462,-0.02867 0.408648,-0.998555 0.763672,-2.154686 0.4109,-1.338072 0.551441,-2.216256 0.381834,-2.419921 -0.196371,-0.23581 -0.137955,-0.38096 0.229655,-0.544142 0.579307,-0.257143 0.865884,-1.414827 0.448243,-1.81289 -0.203575,-0.194018 -0.167662,-0.275589 0.13005,-0.295312 0.515493,-0.03412 0.452514,-0.174849 -0.376303,-0.809374 -0.654117,-0.500763 -0.656903,-0.505312 -0.06917,-0.333594 0.327456,0.09565 0.66117,0.14504 0.741536,0.109351 0.230723,-0.102416 -0.193524,-0.869693 -0.500814,-0.905079 -0.152277,-0.01766 -0.325851,-0.129941 -0.381837,-0.251561 -0.06458,-0.14028 0.05999,-0.178252 0.340336,-0.106636 0.781819,0.199812 1.080388,-0.368132 0.55615,-1.058204 -0.254358,-0.334824 -0.598129,-0.674874 -0.763673,-0.754687 -0.210418,-0.101446 -0.120551,-0.187363 0.293294,-0.28711 0.360491,-0.08689 0.544425,-0.236707 0.475911,-0.385544 -0.06188,-0.134444 0.01062,-0.232948 0.157717,-0.216016 0.147071,0.01702 0.338243,-0.39964 0.426107,-0.924222 0.08785,-0.524576 0.219566,-0.981202 0.29053,-1.014451 C 46.870057,29.244858 47.657845,38.302681 48,44 l 1.000003,0 0,-13.134765 c -1.012579,-2.13702 -2.082558,-3.974602 -3.04915,-4.954686 -1.209577,-1.226461 -1.265856,-1.406063 -0.345865,-1.129298 0.515183,0.15499 0.549503,0.125224 0.520178,-0.421095 -0.03005,-0.560202 -0.01084,-0.553876 0.456546,0.07931 0.381533,0.516861 0.815372,0.715995 2.008789,0.921482 0.154445,0.02658 0.265514,0.04013 0.409502,0.06287 l 0,-5.055859 c -0.02524,1.08e-4 -0.0493,-0.003 -0.07469,-0.0028 l -1.062499,0.0082 0.794108,-0.358201 c 0.123356,-0.05562 0.238223,-0.121466 0.343076,-0.18866 l 0,-0.555079 c 0,-0.171393 -0.03321,-0.33228 -0.09129,-0.48125 -0.0032,-0.0094 -0.0076,-0.01803 -0.01105,-0.02734 C 48.710403,18.31389 48.284247,18 47.785304,18 l -1.795737,0 -2.291016,1.126562 -0.132813,-0.713671 C 43.549193,18.323751 43.517348,18.107636 43.491034,18 l -3.549966,0 c 0.0011,0.0031 8.27e-4,0.0079 0,0.0083 -0.0034,0.0014 -0.01636,-0.005 -0.02767,-0.0083 z m 5.990392,6.543361 c 0.237858,0.03106 0.274775,0.618212 0.0055,0.954296 -0.177076,0.221178 -0.383213,0.429556 -0.456543,0.46211 -0.190527,0.08456 0.144479,-1.299336 0.337567,-1.394534 0.04193,-0.02068 0.07945,-0.02632 0.113454,-0.02188 z"/>
 <path style="opacity:0.1;fill:#ffffff" d="M 6.8007812 7 C 5.2495812 7 4 8.2384547 4 9.7773438 L 4 10.777344 C 4 9.2384546 5.2495812 8 6.8007812 8 L 57.199219 8 C 58.750419 8 60 9.2384546 60 10.777344 L 60 9.7773438 C 60 8.2384547 58.750419 7 57.199219 7 L 6.8007812 7 z"/>
 <path style="fill:#ffffff;opacity:0.1" d="M 16.214844 18 C 15.54213 18 15 18.568347 15 19.273438 L 15 20.273438 C 15 19.568347 15.54213 19 16.214844 19 L 47.785156 19 C 48.45787 19 49 19.568347 49 20.273438 L 49 19.273438 C 49 18.568347 48.45787 18 47.785156 18 L 16.214844 18 z"/>
</svg>
